X: 16
T: Monaghan, The
Z: Yoann
S: https://thesession.org/tunes/67#setting51680
R: jig
M: 6/8
L: 1/8
K: Edor
|:BGE ~F3 | BGE FGA | BGE ~F3 |AFD FGA |
BGE ~F3 | BGE FGA |~d2 B ABG |~F3 AFD :|
|:EGB efg |fdf ecA |DFA dAG |~F3 AFD |
EGB efg |~f3 edc |dcB ABG |~F3 AFD :|
|:~g3 eBe | geg bge | ~g3 eBe |~f3 afd |
~g3 eBe | geg bge |~d2 B ABG |~F3 AFD :|
|:EGB eBG | BGE ~F3 |EGB eBG |~F3 AFD |
EGB GBd |Bdg efg |efd ABG |~F3 AFD :|

